!!!COA:	Josquin des Prez
!!!CDT:	~1450-1521/08/27
!!!OTL:	Textless Piece 4
!!!AGN:	Chanson
!!!SCT:	NJE 28.39
!!!SCA:	New Josquin Edition 28.39
!!!voices:	4
**kern	**kern	**kern	**kern
*staff4	*staff3	*staff2	*staff1
*Ivox	*Ivox	*Ivox	*Ivox
*I"Bassus	*I"Tenor	*I"Altus	*I"Superius
*I'B	*I'T	*I'A	*I'S
*clefF4	*clefGv2	*clefGv2	*clefG2
*k[b-]	*k[b-]	*k[b-]	*k[b-]
*M2/1	*M2/1	*M2/1	*M2/1
*met(C|)	*met(C|)	*met(C|)	*met(C|)
=1-	=1-	=1-	=1-
0FF	0F	0c	1.f
.	.	.	4e/
.	.	.	4d/
=2	=2	=2	=2
1AA	1E	1A	1c
1BB-	1D	1F	1d
=3	=3	=3	=3
0FF	0F	0A	0c
=4	=4	=4	=4
1r	1r	1r	1r
1FF	1F	2.A/	1c
.	.	4G/	.
=5	=5	=5	=5
2.C/	1G	2E/	1e
.	.	2.G/	.
4BB-/	.	.	.
1GG	1B-	.	1d
.	.	4F/	.
.	.	2G/	.
=6	=6	=6	=6
0AA	0A	0E	0c
=7	=7	=7	=7
2r	1r	2r	2r
2C/	.	2e\	2e/
2D\	2r	2d\	2f/
2F\	2A/	[2c\	2a/
=8	=8	=8	=8
1E	1c	4c\]	1g
.	.	4B-\	.
.	.	2G/	.
1D	1d	1A	2.f/
.	.	.	4g/
=9	=9	=9	=9
1F	1A	2F/	4a/
.	.	.	4b-\
.	.	2f\	4cc\
.	.	.	4a/
2G\	2G/	2d\	2b-\
[2E\	[2c\	[2e\	[2g/
=10	=10	=10	=10
2E\]	4c\]	4e\]	2g/]
.	4B-\	4d\	.
2.F\	4A/	4c\	2.a/
.	4G/	4B-\	.
.	2F/	2A/	.
4E\	.	.	4g/
4D\	[2B-\	[2d\	4f/
4C/	.	.	4e/
=11	=11	=11	=11
1D	4B-\]	2d\]	4d/
.	4A/	.	4c/
.	4G/	2B-\	1f
.	4F/	.	.
1C	1G	[1c	.
.	.	.	2e/
=12	=12	=12	=12
1FF	0F	1c]	0f
2r	.	2r	.
2F\	.	2c\	.
=13	=13	=13	=13
1D	1r	2d\	2r
.	.	2f\	2f/
1E	1c	2e\	1g
.	.	[2g\	.
=14	=14	=14	=14
1F	1A	4g\]	2a/
.	.	4f\	.
.	.	1f	2cc\
1G	1B-	.	1b-
.	.	2e\	.
=15	=15	=15	=15
2F\	1.c	1f	1.a
2FF/	.	.	.
2AA/	.	2e\	.
2BB-/	4B-\	2d\	4g/
.	4A/	.	4f/
=16	=16	=16	=16
2C/	2G/	2c\	2e/
2D\	2F/	2A/	2f/
2GG/	1B-	2d\	1g
2G\	.	[2e\	.
=17	=17	=17	=17
2F\	2A/	4e\]	2a/
.	.	4d\	.
2D\	1A	1d	2f/
1E	.	.	1g
.	2G/	2c#i\	.
=18	=18	=18	=18
0D	0A	0d	0f
=19	=19	=19	=19
1r	1r	1r	1r
2.D\	1A	1A	1f
4C/	.	.	.
=20	=20	=20	=20
1AA	1c	1A	1e
1BB-	1B-	1F	1d
=21	=21	=21	=21
1.FF	1.A	1.c	1.f
2GG/	4G/	2B-\	4e/
.	4F/	.	4d/
=22	=22	=22	=22
2AA/	2E/	2A/	2c/
2BB-/	2D/	2d\	2d/
2C/	2G/	4c\	2e/
.	.	4B-\	.
2FF/	2F/	4A/	[2d/
.	.	4G/	.
=23	=23	=23	=23
1AA	4F/	1F	4d/]
.	4E/	.	4c/
.	4D/	.	1c
.	4C/	.	.
1GG	1D	1G	.
.	.	.	2Bni/
=24	=24	=24	=24
0AA	0C	0E	0c
=25	=25	=25	=25
1r	1r	1r	1r
1AA	1C	1A	1e
=26	=26	=26	=26
2.D\	1F	1A	2.f/
4C/	.	.	4e/
1BB-	1G	1D	1d
=27	=27	=27	=27
0AA	0A	0E	0c
=28	=28	=28	=28
1r	1r	1r	1r
1C	1G	2c\	1g
.	.	[2c\	.
=29	=29	=29	=29
2.F\	2A/	4c\]	2f/
.	.	4B-\	.
.	1c	4A/	1a
4E\	.	4G/	.
1D	.	1F	.
.	2Bni\	.	4g/
.	.	.	4f/
=30	=30	=30	=30
0C	1c	0G	0e
.	1c	.	.
=31	=31	=31	=31
1r	1r	1r	1r
1C	1c	1e	1g
=32	=32	=32	=32
1D	1A	1d	1f
1BB-	1d	1f	1b-
=33	=33	=33	=33
1F	1c	0f	1a
2r	2B-\	.	2dd\
[2FF/	[2A/	.	[2cc\
=34	=34	=34	=34
4FF/]	4A/]	1r	4cc\]
4GG/	4G/	.	4b-\
2AA/	4F/	.	4a/
.	4E/	.	4g/
2BB-/	2D/	2r	2f/
[2C/	2C/	[2g\	[2e/
=35	=35	=35	=35
4C/]	1c	4g\]	4e/]
4D\	.	4f\	4f/
4E\	.	2e\	1g
4F\	.	.	.
4G\	2B-\	4d\	.
4E\	.	4G/	.
[2F\	[2A/	[2c\	[2c/
=36	=36	=36	=36
2F\]	2A/]	4c\]	2c/]
.	.	4A/	.
4E\	4G/	2B-\	1f
4D\	4F/	.	.
1C	1G	1c	.
.	.	.	2e/
=37	=37	=37	=37
0FFl	0Fl	0cl	0fl
==	==	==	==
*-	*-	*-	*-
!!!RDF**kern: l=long note in original notation
!!!RDF**kern: i=editorial accidental
!!!ENC:	Will Watson 13/12/2011
!!!END:	2011/12/13/
!!!EED:	Jesse Rodin
!!!EEV:	2012/01/24/
!!attribution-level@Jos: 4 (questionable)
!!!ONB:	Translated from MusicXML and edited on 2012/01/16/ by Craig Sapp
!!muse2ps: C^@{COA}?\n@{SCT}^i2I150v90,90,90,150Q16
